frontend/public/svg/files/file-invoice.svg

<svg width="142" height="175" viewBox="0 0 142 175" fill="none" xmlns="http://www.w3.org/2000/svg">
<g clip-path="url(#clip0)">
<path d="M140.545 93.2688C140.725 109.549 140.968 125.828 141.051 142.108C141.081 148.054 140.628 154.001 140.578 159.948C140.509 168.328 133.923 173.347 126.366 173.498C111.101 173.802 95.831 174.177 80.5653 174.097C62.1489 174.001 43.7341 173.533 25.3225 173.064C21.0621 172.856 16.8176 172.4 12.6101 171.699C7.48083 170.965 2.45046 165.052 2.26799 159.462C1.80856 145.327 1.26919 131.189 1.11363 117.05C0.771682 85.9394 0.704827 54.8292 0.371408 23.722C0.320214 18.9419 0.436857 14.3085 2.43016 9.8966C3.80847 6.84004 5.68889 4.19957 9.07494 3.17043C10.5715 2.71789 12.1186 2.45319 13.6805 2.38269C19.3999 2.12869 25.1328 2.13039 30.8456 1.79238C50.6073 0.610967 70.3665 1.05531 90.1281 1.71034C92.932 1.80288 95.7398 1.93218 98.5424 1.87442C100.471 1.85116 102.33 2.5934 103.712 3.93893C112.948 12.1383 122.179 20.3436 131.405 28.5548C132.747 29.7487 134.012 31.0404 135.428 32.1371C138.381 34.4277 139.18 37.5541 139.235 41.0694C139.448 54.5427 139.711 68.0149 139.921 81.4882C139.983 85.4163 139.931 89.3465 139.931 93.276L140.545 93.2688ZM93.2352 10.0248C91.2813 9.8666 89.6254 9.64154 87.9662 9.61332C73.8221 9.37395 59.6774 9.15684 45.5325 8.9621C39.1384 8.8735 32.7437 8.83674 26.3484 8.79802C23.0995 8.77767 19.8436 8.67357 16.6026 8.84028C11.9741 9.07854 10.614 10.4242 9.78831 15.1229C9.02453 19.2104 8.84909 23.3858 9.26725 27.5229C9.52683 29.8652 9.66 32.2199 9.66623 34.5766C9.73581 74.319 9.78949 114.062 9.8271 153.803C9.79737 154.701 9.838 155.599 9.94853 156.491C10.7722 161.615 13.4666 164.707 19.054 164.932C40.7177 165.806 62.3819 165.802 84.0531 165.435C94.9424 165.251 105.833 165.158 116.723 165.033C119.414 165.003 122.111 165.105 124.796 164.977C129.627 164.747 131.884 162.417 131.836 157.514C131.758 148.989 131.538 140.466 131.365 131.943C131.264 127.005 131.179 122.066 131.013 117.129C130.649 106.249 130.06 95.371 129.894 84.4876C129.708 72.3657 129.89 60.2388 129.903 48.1136C129.903 47.2479 129.821 46.3822 129.776 45.4882C129.403 45.3911 129.024 45.3254 128.641 45.2915C121.794 45.4293 114.949 45.6369 108.102 45.692C106.083 45.7079 104.069 45.4903 102.101 45.044C97.5428 44.0024 96.1559 42.3322 95.6998 37.6544C95.329 33.8588 95.0671 30.052 94.7284 26.2525C94.2624 21.0077 93.7669 15.7638 93.2352 10.0248ZM105.335 37.5756L125.47 36.3219L101.917 14.9217C103.122 22.8995 104.201 30.048 105.337 37.5782L105.335 37.5756Z" fill="black"/>
<path d="M37.1562 72.8789C37.365 74.265 37.6451 75.5843 37.7376 76.9166C37.8302 77.9084 37.7594 78.9086 37.5277 79.8767C37.3495 80.6479 36.9147 81.3358 36.2948 81.8287C35.6749 82.3209 34.9063 82.5887 34.1146 82.5881C33.3248 82.529 32.5739 82.2218 31.968 81.7118C31.3622 81.2019 30.9321 80.514 30.739 79.7461C30.5585 78.7557 30.4742 77.7495 30.4871 76.7427C30.4484 75.751 30.4785 74.756 30.4785 73.6008C29.0634 73.2832 27.749 73.0758 26.4895 72.682C24.7637 72.2127 23.0807 71.5977 21.4586 70.8442C19.5178 69.8597 18.8194 68.0298 19.4101 66.3739C19.949 64.8642 21.4665 64.0344 23.5379 64.2235C25.438 64.3967 27.3256 64.7783 29.2264 64.8413C30.9013 64.9074 32.5783 64.7802 34.2242 64.4625C35.3046 64.1735 36.3166 63.6714 37.2002 62.9857C37.7824 62.6277 38.2329 62.0908 38.4843 61.4552C38.7357 60.8196 38.7746 60.1194 38.5949 59.4599C38.4391 58.8545 38.1006 58.3118 37.6255 57.9056C37.1503 57.4993 36.5616 57.2494 35.9394 57.1896C34.9469 57.0263 33.9379 56.9878 32.9359 57.0749C31.4821 57.1786 30.0421 57.4924 28.5883 57.5915C23.4341 57.9446 19.6169 54.4066 19.8348 49.2373C20.0494 44.1356 22.3222 40.2218 27.2067 38.1327C27.8204 37.8702 28.4465 37.6365 29.1895 37.3405C29.3962 35.9622 29.6051 34.5364 29.8237 33.1128C30.0337 31.7469 30.7235 30.8236 32.1805 30.6727C32.8578 30.5575 33.5537 30.6986 34.1326 31.0688C34.7114 31.4389 35.1316 32.0113 35.3113 32.6744C35.7222 34.1734 36.0499 35.6937 36.2926 37.229C41.055 39.3588 41.4677 40.0011 40.0428 43.6372C39.1301 43.4879 38.2097 43.3896 37.2861 43.3431C35.2921 43.3365 33.23 43.1254 31.3181 43.5501C27.8205 44.3259 26.5964 46.4899 27.0519 50.7371C27.8395 50.7371 28.6717 50.776 29.5013 50.7301C31.7368 50.6054 33.9808 50.234 36.2025 50.3423C40.8343 50.5687 44.9182 53.6508 46.1639 57.6748C47.5862 62.2691 46.1534 66.1168 42.6768 69.181C41.1068 70.5639 39.181 71.5445 37.1562 72.8789Z" fill="black"/>
<path d="M66.4739 119.043C77.9283 119.043 89.3827 119.048 100.837 119.059C102.182 119.029 103.525 119.156 104.841 119.438C106.588 119.863 107.601 121.176 107.416 122.508C107.348 123.189 107.052 123.826 106.575 124.317C106.098 124.807 105.47 125.122 104.791 125.209C103.252 125.528 101.688 125.71 100.117 125.752C78.666 125.791 57.2153 125.799 35.7639 125.774C33.8605 125.774 31.9518 125.572 30.0536 125.388C29.2857 125.313 28.3559 125.245 27.8276 124.792C27.1332 124.197 26.3256 123.196 26.3768 122.423C26.4274 121.668 27.3844 120.804 28.1491 120.323C28.7457 119.947 29.6634 120.014 30.4405 119.999C42.4523 119.777 54.4632 119.567 66.4732 119.367L66.4739 119.043Z" fill="black"/>
<path d="M24.9524 109.36C24.2835 106.861 25.0181 105.875 26.8499 105.688C29.5258 105.413 32.2005 105.097 34.8843 104.941C55.9396 103.734 77.0012 102.714 98.1005 102.88C100.341 102.891 102.577 103.083 104.786 103.453C106.866 103.811 107.755 105.016 107.581 106.594C107.413 108.117 106.198 109.128 104.228 109.263C103.112 109.339 101.985 109.263 100.863 109.273C76.9605 109.424 53.0583 109.57 29.1557 109.712C27.7525 109.719 26.3484 109.482 24.9524 109.36Z" fill="black"/>
<path d="M25.5891 93.4261C25.3889 90.5737 25.5196 90.3591 27.4183 90.0834C27.7531 90.046 28.0894 90.0276 28.4262 90.0289C37.1745 89.792 45.9237 89.5754 54.6714 89.3162C68.6919 88.9 82.7113 88.4373 96.7326 88.0416C99.0843 87.9759 101.444 88.119 103.797 88.2148C104.483 88.1781 105.157 88.4065 105.679 88.8534C106.201 89.2998 106.53 89.9298 106.6 90.6137C106.788 91.8378 105.793 92.9162 104.082 93.2634C102.976 93.455 101.856 93.5436 100.734 93.5259C91.642 93.6257 82.5491 93.6572 73.4569 93.7937C62.2338 93.9604 51.015 94.24 39.7923 94.3969C36.3137 94.4454 32.835 94.305 29.3617 94.1409C28.089 93.9906 26.8284 93.7523 25.5891 93.4261Z" fill="black"/>
<path d="M40.7141 143.656C37.7934 143.656 34.8726 143.67 31.9526 143.647C31.1673 143.663 30.3826 143.592 29.6134 143.433C28.26 143.109 27.2945 142.107 27.5335 140.793C27.7034 139.859 28.6146 138.956 29.3996 138.276C29.8308 137.901 30.68 137.962 31.3475 137.912C37.0537 137.477 42.7604 137.041 48.4706 136.657C49.8144 136.562 51.164 136.582 52.5044 136.716C53.1295 136.764 53.7207 137.021 54.1825 137.445C54.6443 137.869 54.9503 138.436 55.0513 139.055C55.3834 140.521 54.9855 141.868 53.6492 142.525C52.4493 143.115 51.1434 143.461 49.8082 143.541C46.7832 143.686 43.747 143.588 40.7148 143.588L40.7141 143.656Z" fill="black"/>
</g>
<defs>
<clipPath id="clip0">
<rect width="141.113" height="173.93" fill="white" transform="translate(0.363281 0.574219)"/>
</clipPath>
</defs>
</svg>

<svg xmlns="http://www.w3.org/2000/svg" width="142" height="175" fill="none" viewBox="0 0 142 175"><g fill="#000" clip-path="url(#a)"><path d="M140.545 93.269c.18 16.28.423 32.559.506 48.839.03 5.946-.423 11.893-.473 17.84-.069 8.38-6.655 13.399-14.212 13.55-15.265.304-30.535.679-45.8.599-18.417-.096-36.832-.564-55.243-1.033a110 110 0 0 1-12.713-1.365c-5.13-.734-10.16-6.647-10.342-12.237-.46-14.135-.999-28.273-1.154-42.412C.772 85.94.704 54.83.37 23.722c-.05-4.78.066-9.413 2.06-13.825C3.807 6.84 5.688 4.2 9.074 3.17a19 19 0 0 1 4.606-.787c5.719-.254 11.452-.253 17.165-.59C50.607.61 70.366 1.054 90.128 1.71c2.804.093 5.612.222 8.414.164a7.28 7.28 0 0 1 5.17 2.065q13.854 12.3 27.693 24.616c1.342 1.194 2.607 2.485 4.023 3.582 2.953 2.29 3.752 5.417 3.807 8.932.213 13.474.476 26.946.686 40.42.062 3.927.01 7.858.01 11.787zm-47.31-83.244c-1.954-.158-3.61-.383-5.269-.412q-21.217-.359-42.433-.65c-6.395-.09-12.79-.126-19.185-.165-3.248-.02-6.504-.124-9.745.042-4.629.239-5.989 1.584-6.815 6.283a43.6 43.6 0 0 0-.52 12.4 66 66 0 0 1 .398 7.054q.104 59.614.161 119.226-.045 1.349.122 2.688c.823 5.124 3.518 8.216 9.105 8.441 21.664.874 43.328.87 65 .503 10.888-.184 21.779-.277 32.669-.402 2.691-.03 5.388.072 8.073-.056 4.831-.23 7.088-2.56 7.04-7.463-.078-8.525-.298-17.048-.471-25.571-.101-4.938-.186-9.877-.352-14.814-.364-10.88-.953-21.758-1.119-32.641-.186-12.122-.004-24.25.009-36.374 0-.866-.082-1.732-.127-2.626a7 7 0 0 0-1.135-.197c-6.847.138-13.692.346-20.539.401a26.2 26.2 0 0 1-6.001-.648c-4.558-1.042-5.945-2.712-6.401-7.39-.371-3.795-.633-7.602-.972-11.402-.466-5.244-.961-10.488-1.493-16.227m12.1 27.55 20.135-1.253-23.553-21.4 3.42 22.656z"/><path d="M37.156 72.879c.209 1.386.49 2.705.582 4.038a9.1 9.1 0 0 1-.21 2.96 3.5 3.5 0 0 1-3.413 2.711 3.77 3.77 0 0 1-3.376-2.842 15.7 15.7 0 0 1-.252-3.003c-.039-.992-.008-1.987-.008-3.142-1.416-.318-2.73-.525-3.99-.919a31.7 31.7 0 0 1-5.03-1.838c-1.941-.984-2.64-2.814-2.049-4.47.539-1.51 2.057-2.34 4.128-2.15 1.9.173 3.788.554 5.688.617a21.8 21.8 0 0 0 4.998-.378 8.4 8.4 0 0 0 2.976-1.477 3.16 3.16 0 0 0 1.395-3.526 3.04 3.04 0 0 0-2.656-2.27 12 12 0 0 0-3.003-.115c-1.454.104-2.894.417-4.348.517-5.154.353-8.971-3.185-8.753-8.355.214-5.101 2.487-9.015 7.372-11.104.613-.263 1.24-.497 1.982-.793.207-1.378.416-2.804.635-4.227.21-1.366.9-2.29 2.357-2.44a2.763 2.763 0 0 1 3.13 2.001q.617 2.251.982 4.555c4.762 2.13 5.175 2.772 3.75 6.408a25 25 0 0 0-2.757-.294c-1.994-.007-4.056-.218-5.968.207-3.498.776-4.722 2.94-4.266 7.187.788 0 1.62.039 2.45-.007 2.235-.125 4.479-.496 6.7-.388 4.632.227 8.716 3.309 9.962 7.333 1.422 4.594-.01 8.442-3.487 11.506-1.57 1.383-3.496 2.364-5.52 3.698m29.317 46.164q17.182 0 34.363.016c1.345-.03 2.688.097 4.004.379 1.747.425 2.76 1.738 2.575 3.07a3.026 3.026 0 0 1-2.625 2.701 26.5 26.5 0 0 1-4.674.543q-32.177.059-64.353.022c-1.904 0-3.812-.202-5.71-.386-.768-.075-1.698-.143-2.226-.596-.695-.595-1.502-1.596-1.451-2.369.05-.755 1.007-1.619 1.772-2.1.597-.376 1.514-.309 2.291-.324q18.018-.332 36.033-.632zm-41.522-9.683c-.669-2.499.066-3.485 1.898-3.672 2.676-.275 5.35-.591 8.034-.747 21.056-1.207 42.117-2.227 63.217-2.061 2.24.011 4.476.203 6.685.573 2.08.358 2.969 1.563 2.795 3.141-.168 1.523-1.383 2.534-3.353 2.669-1.116.076-2.243 0-3.365.01q-35.854.226-71.707.439c-1.403.007-2.808-.23-4.204-.352m.638-15.934c-.201-2.852-.07-3.067 1.828-3.343a9 9 0 0 1 1.008-.054c8.749-.237 17.498-.454 26.245-.713 14.02-.416 28.04-.879 42.062-1.274 2.351-.066 4.711.077 7.064.173a2.674 2.674 0 0 1 2.803 2.399c.188 1.224-.807 2.302-2.518 2.65-1.106.191-2.226.28-3.348.262-9.092.1-18.185.131-27.277.268-11.223.166-22.442.446-33.665.603-3.478.048-6.957-.092-10.43-.256a27.5 27.5 0 0 1-3.773-.715m15.125 50.23c-2.92 0-5.841.014-8.761-.009-.786.016-1.57-.055-2.34-.214-1.353-.324-2.318-1.326-2.08-2.64.17-.934 1.082-1.837 1.867-2.517.43-.375 1.28-.314 1.948-.364 5.706-.435 11.412-.871 17.123-1.255a24 24 0 0 1 4.033.059 2.8 2.8 0 0 1 2.547 2.339c.332 1.466-.066 2.813-1.402 3.47-1.2.59-2.506.936-3.84 1.016-3.026.145-6.062.047-9.094.047z"/></g><defs><clipPath id="a"><path fill="#fff" d="M.363.574h141.113v173.93H.363z"/></clipPath></defs></svg>
